images/water_park.svg

<?xml version="1.0" encoding="UTF-8" standalone="no"?>
<svg xmlns:dc="http://purl.org/dc/elements/1.1/" xmlns:cc="http://creativecommons.org/ns#" xmlns:rdf="http://www.w3.org/1999/02/22-rdf-syntax-ns#" xmlns:svg="http://www.w3.org/2000/svg" xmlns="http://www.w3.org/2000/svg" xmlns:sodipodi="http://sodipodi.sourceforge.net/DTD/sodipodi-0.dtd" xmlns:inkscape="http://www.inkscape.org/namespaces/inkscape" id="svg2" viewBox="0 0 14 14" height="14" width="14" version="1.1" sodipodi:docname="water_park.svg" inkscape:version="0.92.4 (5da689c313, 2019-01-14)">
  <sodipodi:namedview pagecolor="#ffffff" bordercolor="#666666" borderopacity="1" objecttolerance="10" gridtolerance="10" guidetolerance="10" inkscape:pageopacity="0" inkscape:pageshadow="2" inkscape:window-width="1881" inkscape:window-height="1051" id="namedview11448" showgrid="true" inkscape:pagecheckerboard="true" inkscape:zoom="23.8396" inkscape:cx="5.8879986" inkscape:cy="4.5153719" inkscape:window-x="0" inkscape:window-y="0" inkscape:window-maximized="1" inkscape:current-layer="svg2">
    <inkscape:grid type="xygrid" id="grid11993" units="px" spacingx="1" spacingy="1" />
  </sodipodi:namedview>
  <metadata id="metadata8">
    <rdf:RDF>
      <cc:Work rdf:about="">
        <dc:format>image/svg+xml</dc:format>
        <dc:type rdf:resource="http://purl.org/dc/dcmitype/StillImage" />
        <dc:title></dc:title>
      </cc:Work>
    </rdf:RDF>
  </metadata>
  <defs id="defs6" />
  <path d="m 8.7083337,0.54178023 c -0.1252548,0.009961 -0.2461931,0.0506323 -0.375,0.12499897 L 4.2916666,2.8334275 C 3.77896,3.0760921 3.5785334,3.8362857 3.9166666,4.2917486 L 5,6.0000675 0.3333334,8.6667117 0.375,9.5000379 c 0,0 0.6238766,-0.4999957 1.2916666,-0.4999957 0.6317149,0 1.8976382,0.9999918 2.6666668,0.9999918 0.6711521,0 1.9949321,-0.9999918 2.6666666,-0.9999918 0.6991169,0 1.9675497,0.9999918 2.666666,0.9999918 H 10.125 L 6.3333334,4.0000843 9.125,2.5417633 C 9.722322,2.1969018 9.915373,1.5975422 9.666666,1.166775 9.437251,0.76941954 9.084096,0.51189611 8.7083337,0.54178023 Z M 11,4.0000843 c -1.104574,0 -2,0.8954591 -2,1.9999832 0,1.104524 0.895426,1.9999831 2,1.9999831 1.104574,0 2,-0.8954591 2,-1.9999831 C 13,4.8955434 12.104574,4.0000843 11,4.0000843 Z M 1.6666666,11.000025 c -0.4285893,0 -1.06233914,0.362481 -1.64659015,0.650968 L 0.00386128,13.67779 C 0.61690291,13.385497 1.2737936,13.000008 1.6666666,13.000008 2.3389826,13.000008 3.6214694,14 4.3333334,14 4.967336,14 6.3230466,13.000008 7,13.000008 7.672316,13.000008 9.028974,14 9.666666,14 c 0.672317,0 2.0339,-0.999992 2.666668,-0.999992 0.396039,0 1.077576,0.391727 1.696931,0.68483 l 0.04637,-2.023556 c -0.602924,-0.299517 -1.304223,-0.685649 -1.743298,-0.661257 -0.637694,0 -1.953704,0.999992 -2.666668,0.999992 -0.593219,0 -1.99435,-0.999992 -2.666666,-0.999992 -0.672316,0 -2.0721294,0.999992 -2.6666666,0.999992 -0.6340028,0 -1.9548028,-0.999992 -2.6666668,-0.999992 z" id="path11995" style="stroke-width:3;fill:none;stroke:#f9f9f9;stroke-opacity:1;opacity:0.5;stroke-miterlimit:4;stroke-dasharray:none;stroke-linejoin:round;stroke-linecap:round" />
  <rect style="fill:none;stroke:none;visibility:hidden" id="canvas" y="0" x="0" height="14" width="14" />
  <path style="stroke-width:1.33332765" id="swimming" d="m 8.7083337,0.54178023 c -0.1252548,0.009961 -0.2461931,0.0506323 -0.375,0.12499897 L 4.2916666,2.8334275 C 3.77896,3.0760921 3.5785334,3.8362857 3.9166666,4.2917486 L 5,6.0000675 0.3333334,8.6667117 0.375,9.5000379 c 0,0 0.6238766,-0.4999957 1.2916666,-0.4999957 0.6317149,0 1.8976382,0.9999918 2.6666668,0.9999918 0.6711521,0 1.9949321,-0.9999918 2.6666666,-0.9999918 0.6991169,0 1.9675497,0.9999918 2.666666,0.9999918 H 10.125 L 6.3333334,4.0000843 9.125,2.5417633 C 9.722322,2.1969018 9.915373,1.5975422 9.666666,1.166775 9.437251,0.76941954 9.084096,0.51189611 8.7083337,0.54178023 Z M 11,4.0000843 c -1.104574,0 -2,0.8954591 -2,1.9999832 0,1.104524 0.895426,1.9999831 2,1.9999831 1.104574,0 2,-0.8954591 2,-1.9999831 C 13,4.8955434 12.104574,4.0000843 11,4.0000843 Z M 1.6666666,11.000025 c -0.4285893,0 -1.06233914,0.362481 -1.64659015,0.650968 L 0.00386128,13.67779 C 0.61690291,13.385497 1.2737936,13.000008 1.6666666,13.000008 2.3389826,13.000008 3.6214694,14 4.3333334,14 4.967336,14 6.3230466,13.000008 7,13.000008 7.672316,13.000008 9.028974,14 9.666666,14 c 0.672317,0 2.0339,-0.999992 2.666668,-0.999992 0.396039,0 1.077576,0.391727 1.696931,0.68483 l 0.04637,-2.023556 c -0.602924,-0.299517 -1.304223,-0.685649 -1.743298,-0.661257 -0.637694,0 -1.953704,0.999992 -2.666668,0.999992 -0.593219,0 -1.99435,-0.999992 -2.666666,-0.999992 -0.672316,0 -2.0721294,0.999992 -2.6666666,0.999992 -0.6340028,0 -1.9548028,-0.999992 -2.6666668,-0.999992 z" />
</svg>

<svg xmlns="http://www.w3.org/2000/svg" height="14" width="14">
    <path d="M8.708.542a.878.878 0 00-.375.125L4.292 2.833c-.513.243-.713 1.003-.375 1.459L5 6 .333 8.667l.042.833S.999 9 1.667 9c.631 0 1.897 1 2.666 1C5.004 10 6.328 9 7 9c.7 0 1.968 1 2.667 1h.458L6.333 4l2.792-1.458c.597-.345.79-.944.542-1.375-.23-.398-.583-.655-.959-.625zM11 4a2 2 0 100 4 2 2 0 000-4zm-9.333 7c-.429 0-1.063.363-1.647.651l-.016 2.027C.617 13.385 1.274 13 1.667 13c.672 0 1.954 1 2.666 1 .634 0 1.99-1 2.667-1 .672 0 2.029 1 2.667 1 .672 0 2.034-1 2.666-1 .396 0 1.078.392 1.697.685l.047-2.024c-.603-.3-1.305-.685-1.744-.661-.637 0-1.953 1-2.666 1-.594 0-1.995-1-2.667-1-.672 0-2.072 1-2.667 1-.634 0-1.954-1-2.666-1z" stroke-width="3" fill="none" stroke="#f9f9f9" opacity=".5" stroke-linejoin="round" stroke-linecap="round"/>
    <path d="M8.708.542a.878.878 0 00-.375.125L4.292 2.833c-.513.243-.713 1.003-.375 1.459L5 6 .333 8.667l.042.833S.999 9 1.667 9c.631 0 1.897 1 2.666 1C5.004 10 6.328 9 7 9c.7 0 1.968 1 2.667 1h.458L6.333 4l2.792-1.458c.597-.345.79-.944.542-1.375-.23-.398-.583-.655-.959-.625zM11 4a2 2 0 100 4 2 2 0 000-4zm-9.333 7c-.429 0-1.063.363-1.647.651l-.016 2.027C.617 13.385 1.274 13 1.667 13c.672 0 1.954 1 2.666 1 .634 0 1.99-1 2.667-1 .672 0 2.029 1 2.667 1 .672 0 2.034-1 2.666-1 .396 0 1.078.392 1.697.685l.047-2.024c-.603-.3-1.305-.685-1.744-.661-.637 0-1.953 1-2.666 1-.594 0-1.995-1-2.667-1-.672 0-2.072 1-2.667 1-.634 0-1.954-1-2.666-1z"/>
</svg>
